icons/device/video-fill-slash.svg

<svg width="32" height="32" viewBox="0 0 32 32" fill="none" xmlns="http://www.w3.org/2000/svg">
<path fill-rule="evenodd" clip-rule="evenodd" d="M22.9643 24.3784L28.793 30.2071L30.2072 28.7929L3.20718 1.79288L1.79297 3.20709L4.58589 6.00002H4.00008C2.89551 6.00002 2.00008 6.89545 2.00008 8.00002V24C2.00008 25.1046 2.8955 26 4.00007 26H21.0001C21.9753 26 22.7874 25.3021 22.9643 24.3784ZM28.6667 22.943V22.9794L11.6873 6.00002H21.0001C22.1046 6.00002 23.0001 6.89545 23.0001 8.00002V12.0568L27.6283 8.751C28.6211 8.04186 30.0001 8.75153 30.0001 9.97158L30.0002 21.0568C30.0003 21.9748 29.4147 22.6761 28.6667 22.943Z" fill="black"/>
</svg>

<svg viewBox="0 0 32 32" xmlns="http://www.w3.org/2000/svg"><path fill-rule="evenodd" d="M22.964 24.378l5.829 5.83 1.414-1.415-27-27-1.414 1.414L4.586 6H4a2 2 0 00-2 2v16a2 2 0 002 2h17a2 2 0 001.964-1.622zm5.703-1.435v.036L11.687 6H21a2 2 0 012 2v4.057l4.628-3.306c.993-.71 2.372 0 2.372 1.22v11.086c0 .918-.585 1.62-1.333 1.886z"/></svg>
